X: 153
T: No_235_Song_to_a_Motherless_Boy.krn
N: Derived from No_235_Song_to_a_Motherless_Boy.krn
%%abc-version 2.0
%%abcx-abcm2ps-target-version 5.9.1 (29 Sep 2008)
%%abc-creator hum2abc beta
%%abcx-conversion-date 2019/03/15 08:38:45
%%humdrum-veritas 479185113
%%humdrum-veritas-data 2973011631
%%linebreak <none>
%%barnumbers 0
L: 1/8
M: 3/4
K: B clef=treble
[K:clef=treble][M:3/4]z4z3/ B,/ | 
F4z3/ B/ ||  
[M:2/4]F2(ED ||  
[M:3/4]B,4)z2 ||  
[M:2/4]!fermata!F3/D/ D3/C/ ||  
[M:3/4]D4z3/ F/ ||  
[M:2/4]ED (3EDD ||  
[M:3/4]B,4z3/ B/ ||  
[M:3/8]F3/D/D/C/ ||  
[M:3/4]F4z3/ G/ ||  
[M:2/4]F2ED ||  
[M:3/4]B,4z3/ F/ ||  
[M:2/4]F3/D/ ED ||  
[M:3/4]E4z2 ||  
[M:2/4]F2ED | 
B,2z3/ C/ | 
B,3/G,/G,2 | 
B,2z3/ B/ | 
F2(ED) | 
F2z2 | 
F2ED ||  
[M:3/4]B,4z3/ B/ ||  
[M:2/4]F3/E/D2 | 
E2z2 | 
(F2ED) | 
B,2z2 | 
B,2ED ||  
[M:3/4]E4z2 ||  
[M:2/4](ED ED) | 
B,4 |]  



